dist/svgs/crypto-icons/icons/xns.svg

<svg width="510" height="353" xmlns="http://www.w3.org/2000/svg"><g fill="#000" fill-rule="nonzero"><path d="M202.856842 161.684211L162.84 161.549474 39.96 38.2652632C39.96 38.2652632 76.7431579 38.2652632 80.1115789 38.4 88.0610526 46.4842105 148.288421 106.846316 202.856842 161.684211zM294.612632 253.709474L274.671579 273.650526 196.254737 194.964211 236.271579 195.098947C269.416842 228.378947 294.612632 253.709474 294.612632 253.709474zM353.492632 78.1473684L411.968421 136.757895 352.684211 195.503158 352.684211 195.233684 303.370526 145.785263 278.578947 120.858947 274.806316 117.086316 274.806316 117.086316 274.806316 117.086316 313.475789 77.8778947 353.896842 78.0126316"/><path d="M411.968421 136.757895L392.296842 156.429474 314.014737 77.8778947 353.896842 78.0126316 353.492632 78.1473684zM157.046316 273.515789L78.4947368 351.797895 39.4210526 351.663158 137.509474 253.978947zM273.728421 352.067368C273.728421 352.067368 306.738947 352.067368 313.071579 352.202105L431.370526 234.307368 392.162105 234.711579 274.402105 352.067368M235.058947 195.233684L293.534737 135.814737 274.806316 117.086316 196.254737 195.098947 235.058947 195.233684"/><path transform="rotate(-44.9 68.9 283.1)" d="M-0.366705729 255.442947L138.15145 255.442947 138.15145 310.82326 -0.366705729 310.82326z"/><path d="M352.953684 195.368421L392.162105 234.846316 274.402105 352.067368 0.616842105 77.3389474 39.96 38.2652632 274.671579 273.650526 352.684211 195.503158"/><path d="M196.389474 195.098947L294.477895 97.5494737 275.075789 78.0126316 275.075789 78.0126316 235.732632 77.8778947 148.827368 164.109474"/><path d="M294.477895 97.5494737L274.806316 117.086316 235.732632 77.8778947 235.732632 77.7431579 275.075789 78.0126316zM431.101053 156.564211L391.892632 195.637895 392.566316 195.637895 352.28 195.503158 352.684211 195.503158 392.027368 156.429474"/><path d="M431.370526 234.307368L393.105263 195.637895 352.684211 195.233684 392.162105 234.846316z"/><path d="M117.703158 39.5557895L78.4947368 78.6294737 79.1684211 78.6294737 38.8821053 78.6294737 39.2863158 78.6294737 78.4947368 39.4210526M78.6294737 39.4210526L39.4210526.212631579 39.0168421.212631579 79.3031579.347368421 78.6294737.347368421 117.703158 39.5557895" transform="translate(392 116.9)"/><path transform="rotate(-44.9 376.8 -376.6)" d="M11.6710526 11.7076876L67.0513659 11.7076876 67.0513659 67.0880009 11.6710526 67.0880009z"/><g><path d="M117.568421 39.6126316L78.36 78.6863158 79.0336842 78.6863158 38.7473684 78.5515789 39.1515789 78.5515789 78.4947368 39.4778947M78.4947368 39.4778947L39.4210526.269473684 38.8821053.269473684 79.3031579.269473684 78.4947368.269473684 117.703158 39.6126316" transform="translate(274.9)"/><path transform="rotate(-44.9 176.7 -293.2)" d="M11.5719267 11.7680463L66.95224 11.7680463 66.95224 67.1483596 11.5719267 67.1483596z"/></g><g><path d="M117.490526 39.7473684L78.2821053 78.8210526 78.9557895 78.8210526 38.6694737 78.6863158 39.0736842 78.6863158 78.2821053 39.6126316M78.4168421 39.6126316L39.2084211.404210526 38.8042105.404210526 79.0905263.404210526 78.4168421.404210526 117.625263 39.7473684" transform="translate(353.4)"/><path transform="rotate(-44.9 215.9 -388)" d="M11.48968 11.8883124L66.8699933 11.8883124 66.8699933 67.2686257 11.48968 67.2686257z"/></g></g></svg>

<svg xmlns="http://www.w3.org/2000/svg" viewBox="0 0 510 353"><path d="M202.857 161.684l-40.017-.135L39.96 38.265s36.783 0 40.152.135c7.95 8.084 68.176 68.446 122.745 123.284zm91.756 92.025l-19.941 19.942-78.417-78.687 40.017.135c33.145 33.28 58.34 58.61 58.34 58.61zm58.88-175.562l58.475 58.61-59.284 58.746v-.27l-49.313-49.448-24.792-24.926-3.773-3.773 38.67-39.208 40.42.135"/><path d="M411.968 136.758l-19.671 19.671-78.282-78.551 39.882.135-.404.134zM157.046 273.516l-78.551 78.282-39.074-.135 98.088-97.684zm116.682 78.551s33.01 0 39.344.135L431.37 234.307l-39.209.405-117.76 117.355M235.06 195.234l58.476-59.42-18.729-18.728-78.551 78.013 38.804.135M.313 312.403l98.118-97.776 39.092 39.228-98.118 97.776z"/><path d="M352.954 195.368l39.208 39.478-117.76 117.221L.617 77.34 39.96 38.265l234.712 235.386 78.012-78.148"/><path d="M196.39 195.099l98.088-97.55-19.402-19.536-39.343-.135-86.906 86.231"/><path d="M294.478 97.55l-19.672 19.536-39.073-39.208v-.135l39.343.27zM431.1 156.563l-39.208 39.074h.673l-40.286-.135h.404l39.343-39.074"/><path d="M431.37 234.307l-38.265-38.67-40.42-.403 39.477 39.612zm78.333-77.851l-39.208 39.073h.673-40.286.404l39.209-39.208m.134 0l-39.208-39.208h-.404l40.286.134h-.674l39.074 39.209"/><path d="M392.26 156.188l39.228-39.091 39.091 39.228-39.228 39.091zm.208-116.575L353.26 78.686h.674l-40.287-.134h.405l39.343-39.074m0 0L314.32.269h-.539 40.421-.808l39.208 39.344"/><path d="M275.001 39.38L314.23.29l39.091 39.228-39.228 39.091zm195.889.367l-39.208 39.074h.674l-40.287-.135h.405l39.208-39.073m.135 0L392.608.404h-.404 40.287-.674l39.208 39.343"/><path d="M353.378 39.544L392.606.453l39.091 39.228-39.228 39.091z"/></svg>
